icons/palm_branches_roof.svg

<svg width="48" height="48" viewBox="0 0 48 48" fill="none" xmlns="http://www.w3.org/2000/svg">
<path fill-rule="evenodd" clip-rule="evenodd" d="M24 6C23.415 6 22.9549 6.38341 23.0035 6.83045L23.2553 9.14703C23.199 9.17021 23.1437 9.19613 23.0894 9.22478L22.167 7.19099C21.9888 6.79815 21.4593 6.67876 21.02 6.93239C20.5807 7.18602 20.4193 7.70434 20.6704 8.05505L22.1179 10.0766L7.33556 24.9307C6.85399 25.4146 6.8733 26.0933 7.50716 26.3503C8.16744 26.618 9.24802 26.9381 11 27.2248V39.5658C11 40.2684 11.4957 40.6876 11.8122 40.8862C12.1556 41.1017 12.58 41.2503 12.9903 41.3606C13.8263 41.5854 14.896 41.7258 15.9107 41.8167C16.9375 41.9088 17.959 41.9544 18.7201 41.9771C19.1017 41.9885 19.4199 41.9943 19.6434 41.9971C19.7553 41.9985 19.8435 41.9993 19.9042 41.9996L19.9742 42L19.9997 42H21V36C21 34.5757 22.3068 33 24 33C25.6932 33 27 34.5757 27 36V42H28.0007L28.0258 42L28.0958 41.9996C28.1565 41.9993 28.2447 41.9985 28.3566 41.9971C28.5801 41.9943 28.8983 41.9885 29.2799 41.9771C30.041 41.9544 31.0625 41.9088 32.0893 41.8167C33.104 41.7258 34.1737 41.5854 35.0097 41.3606C35.42 41.2503 35.8444 41.1017 36.1878 40.8862C36.5043 40.6876 37 40.2684 37 39.5658V27.2248C38.752 26.9381 39.8326 26.618 40.4928 26.3503C41.1267 26.0933 41.146 25.4146 40.6644 24.9307L25.9768 10.1718L27.4967 8.0514C27.7467 7.70265 27.5843 7.18602 27.145 6.93239C26.7057 6.67876 26.1771 6.79647 26.0001 7.18734L25.0427 9.30132C24.9471 9.24076 24.8474 9.18933 24.7447 9.14703L24.9965 6.83045C25.0451 6.38341 24.585 6 24 6ZM28 41C28 42 28.0007 42 28.0007 42L28 41ZM20 41L19.9997 42C19.9997 42 20 42 20 41ZM24 11.0207L10.0715 25.0168C12.2817 25.4927 16.4301 26 24 26C31.5699 26 35.7183 25.4927 37.9285 25.0168L24 11.0207ZM24 28C28.9064 28 32.4477 27.7901 35 27.4989V39.2568C34.8874 39.3074 34.7209 39.3672 34.4903 39.4292C33.8263 39.6078 32.896 39.7364 31.9107 39.8247C30.9375 39.9119 29.959 39.956 29.2201 39.978C29.144 39.9803 29.0706 39.9823 29 39.9842V36C29 33.5997 26.9222 31 24 31C21.0778 31 19 33.5997 19 36V39.9842C18.9294 39.9823 18.856 39.9803 18.7799 39.978C18.0411 39.956 17.0625 39.9119 16.0893 39.8247C15.104 39.7364 14.1737 39.6078 13.5097 39.4292C13.2791 39.3672 13.1126 39.3074 13 39.2568V27.4989C15.5523 27.7901 19.0936 28 24 28Z" fill="black"/>
</svg>

<svg
  xmlns="http://www.w3.org/2000/svg"
  width="24"
  height="24"
  viewBox="0 0 24 24"
  fill="none"
  stroke="currentColor"
  stroke-width="2"
  stroke-linecap="round"
  stroke-linejoin="round"
>
  <path
    fill-rule="evenodd"
    d="M24 6c-.585 0-1.045.383-.997.83l.252 2.317a2 2 0 0 0-.166.078l-.922-2.034c-.178-.393-.708-.512-1.147-.259-.44.254-.6.772-.35 1.123l1.448 2.022L7.336 24.93c-.482.484-.463 1.162.171 1.42.66.267 1.741.587 3.493.874v12.34c0 .703.496 1.123.812 1.321.344.216.768.364 1.178.475.836.224 1.906.365 2.92.456a54.039 54.039 0 0 0 3.993.183h1.097v-6c0-1.424 1.307-3 3-3s3 1.576 3 3v6h1.096l.26-.003a54 54 0 0 0 3.733-.18c1.015-.091 2.085-.232 2.92-.456.411-.11.835-.26 1.179-.475.316-.198.812-.618.812-1.32V27.225c1.752-.287 2.833-.607 3.493-.875.634-.257.653-.935.171-1.42L25.977 10.173l1.52-2.12c.25-.35.087-.866-.352-1.12-.44-.253-.968-.136-1.145.255l-.957 2.114a2 2 0 0 0-.298-.154l.252-2.317C25.045 6.383 24.585 6 24 6m4 35v1zm-8 0v1zm4-29.98L10.072 25.018C12.282 25.493 16.43 26 24 26s11.718-.507 13.929-.983zM24 28c4.906 0 8.448-.21 11-.501v11.758c-.113.05-.28.11-.51.172-.664.179-1.594.307-2.58.396a47 47 0 0 1-2.91.16V36c0-2.4-2.078-5-5-5s-5 2.6-5 5v3.984l-.22-.006a47 47 0 0 1-2.69-.153c-.986-.089-1.916-.217-2.58-.396a3.5 3.5 0 0 1-.51-.172V27.499c2.552.291 6.094.501 11 .501"
    clip-rule="evenodd"
  />
</svg>
